assets/bank-tab/Asset/Corporate Salary.svg

<svg width="24" height="24" viewBox="0 0 24 24" fill="none" xmlns="http://www.w3.org/2000/svg">
<path fill-rule="evenodd" clip-rule="evenodd" d="M11.2069 5.91442C10.7571 6.29013 10.7484 6.97459 11.1618 7.39074C12.2774 8.51356 13.2878 9.65321 14.4462 11.1054C14.8154 11.5681 15 11.7995 14.9999 12.0833C14.9999 12.3671 14.8153 12.5985 14.446 13.0613C14.3575 13.1723 14.2698 13.2815 14.1828 13.389C14.0357 13.5708 13.9544 13.7981 13.9544 14.0329V15.0087C13.9544 15.8788 14.6463 16.5841 15.4998 16.5841C16.3534 16.5841 17.0453 15.8788 17.0453 15.0087V11.8299C17.0453 11.1774 17.5642 10.6484 18.2044 10.6484C18.8445 10.6484 19.3634 11.1774 19.3634 11.8299V15.0087C19.3634 15.8788 20.0553 16.5841 20.9089 16.5841C21.7624 16.5841 22.4543 15.8788 22.4543 15.0087V11.0106C22.4543 10.8106 22.6134 10.6484 22.8097 10.6484C23.5093 10.6484 23.8591 10.6484 23.9705 10.4504C24.0819 10.2524 23.871 10.0105 23.4493 9.52681C21.2422 6.99507 19.4423 5.43672 16.4506 3.45184C15.9963 3.1504 15.7691 2.99968 15.497 3C15.2249 3.00032 14.9983 3.15153 14.545 3.45396C13.2583 4.31236 12.1902 5.09326 11.2069 5.91442ZM16.8189 6.57477C16.8189 7.36448 16.1909 8.00468 15.4162 8.00468C14.6415 8.00468 14.0135 7.36448 14.0135 6.57477C14.0135 5.78505 14.6415 5.14486 15.4162 5.14486C16.1909 5.14486 16.8189 5.78505 16.8189 6.57477Z" fill="#1F589A"/>
<path d="M8.10253 21H22.8996C23.62 21 24.1419 20.2812 23.9654 19.5469L23.8331 19.0059C23.7082 18.4957 23.2671 18.1402 22.7673 18.1402H8.23485C7.735 18.1402 7.29395 18.5035 7.16899 19.0136L7.03668 19.5546C6.85291 20.2812 7.38216 21 8.10253 21Z" fill="#1F589A"/>
<path d="M7.2134 10.4357C6.99345 10.537 6.71078 10.537 6.14544 10.537H1.54207C0.690408 10.537 0 11.2338 0 12.0935C0 12.9531 0.690407 13.6499 1.54207 13.6499H6.14356C6.71067 13.6499 6.99422 13.6499 7.21474 13.7519C7.45721 13.864 7.6517 14.0603 7.76275 14.305C7.86374 14.5276 7.86374 14.8138 7.86374 15.3862C7.86374 16.4413 7.86374 16.9689 8.19439 17.1169C8.52503 17.2649 8.9067 16.9159 9.67005 16.2179C10.8461 15.1426 11.784 14.1617 12.9132 12.7933C13.1865 12.4621 13.3232 12.2964 13.3232 12.0933C13.3232 11.8902 13.1866 11.7246 12.9133 11.3935C11.7852 10.0261 10.8467 9.04585 9.67102 7.97081C8.90703 7.27223 8.52504 6.92293 8.19439 7.07092C7.86374 7.2189 7.86374 7.7468 7.86374 8.80261C7.86374 9.37324 7.86374 9.65855 7.76336 9.88055C7.65221 10.1264 7.45694 10.3235 7.2134 10.4357Z" fill="#1F589A"/>
</svg>

<svg xmlns="http://www.w3.org/2000/svg" width="24" height="24" fill="none" viewBox="0 0 24 24"><path fill="#1f589a" fill-rule="evenodd" d="M11.207 5.914c-.45.376-.459 1.06-.045 1.477a44 44 0 0 1 3.284 3.714c.37.463.554.694.554.978s-.185.515-.554.978l-.263.328c-.147.182-.229.41-.229.644v.976c0 .87.692 1.575 1.546 1.575.853 0 1.545-.705 1.545-1.575v-3.18a1.17 1.17 0 0 1 1.16-1.18c.64 0 1.158.528 1.158 1.18v3.18c0 .87.692 1.575 1.546 1.575.853 0 1.545-.705 1.545-1.575V11.01c0-.2.16-.363.356-.363.7 0 1.05 0 1.16-.198.112-.198-.099-.44-.52-.923-2.208-2.532-4.008-4.09-7-6.075-.454-.302-.68-.452-.953-.452s-.499.152-.952.454c-1.287.858-2.355 1.64-3.338 2.46m5.612.66c0 .79-.628 1.43-1.403 1.43-.774 0-1.402-.64-1.402-1.43s.628-1.43 1.402-1.43c.775 0 1.403.641 1.403 1.43" clip-rule="evenodd"/><path fill="#1f589a" d="M8.103 21H22.9c.72 0 1.242-.719 1.065-1.453l-.132-.541c-.125-.51-.566-.866-1.066-.866H8.235c-.5 0-.941.363-1.066.874l-.132.54C6.853 20.282 7.382 21 8.103 21m-.89-10.564c-.22.101-.502.101-1.068.101H1.542A1.55 1.55 0 0 0 0 12.093c0 .86.69 1.557 1.542 1.557h4.602c.567 0 .85 0 1.07.102.243.112.438.308.549.553.1.223.1.509.1 1.081 0 1.055 0 1.583.331 1.73.331.149.713-.2 1.476-.898a31.5 31.5 0 0 0 3.243-3.425c.274-.33.41-.497.41-.7s-.136-.368-.41-.7a31.5 31.5 0 0 0-3.242-3.422c-.764-.699-1.146-1.048-1.477-.9-.33.148-.33.676-.33 1.732 0 .57 0 .856-.1 1.078a1.12 1.12 0 0 1-.55.555"/></svg>
